packages/elvis-assets-icons/icons/svg/src/power_outage-color.svg

<svg width="24" height="24" viewBox="0 0 24 24" fill="none" xmlns="http://www.w3.org/2000/svg">
<g clip-path="url(#clip0)">
<path d="M15.6201 13.6636L13.2167 13.6828L14.7808 7.79999L11.5001 12.4564L14.3421 15.3307L15.6201 13.6636Z" fill="#29D305"/>
<path d="M15.6218 18.6738C15.7787 18.5181 15.7795 18.2647 15.6236 18.1079L8.75408 11.1997C8.6 11.0447 8.35008 11.0421 8.19279 11.1938L8.09991 11.2834C7.93893 11.4386 7.93649 11.6956 8.09449 11.8539L10.2998 14.0628L9.46413 15.3527L11.5 15.5L10.0738 20.9863L13.1193 16.918L14.9547 18.7718C15.1102 18.9289 15.3638 18.93 15.5207 18.7742L15.6218 18.6738Z" fill="#29D305"/>
<path d="M21.7233 23.2538L2.28332 23.2338C1.8894 23.2415 1.50044 23.145 1.15569 22.9543C0.810935 22.7636 0.522581 22.4853 0.319725 22.1476C0.116869 21.8098 0.00668607 21.4245 0.000294815 21.0306C-0.00609644 20.6367 0.0915297 20.248 0.283323 19.9038L10.0333 1.92384C10.2255 1.56883 10.5099 1.27233 10.8567 1.06571C11.2035 0.859081 11.5997 0.75 12.0033 0.75C12.407 0.75 12.8032 0.859081 13.1499 1.06571C13.4967 1.27233 13.7812 1.56883 13.9733 1.92384L23.7233 19.9238C23.9151 20.268 24.0127 20.6567 24.0064 21.0506C24 21.4445 23.8898 21.8298 23.6869 22.1676C23.4841 22.5053 23.1957 22.7836 22.851 22.9743C22.5062 23.165 22.1172 23.2615 21.7233 23.2538ZM12.0333 2.23384C11.8988 2.23554 11.7671 2.27244 11.6513 2.34086C11.5355 2.40929 11.4397 2.50685 11.3733 2.62384L1.63332 20.6238C1.56934 20.7367 1.5357 20.8641 1.5357 20.9938C1.5357 21.1235 1.56934 21.251 1.63332 21.3638C1.7013 21.4757 1.79665 21.5683 1.91038 21.6331C2.02411 21.6978 2.15246 21.7325 2.28332 21.7338H21.7833C21.9142 21.7325 22.0425 21.6978 22.1563 21.6331C22.27 21.5683 22.3653 21.4757 22.4333 21.3638C22.4946 21.2501 22.5267 21.123 22.5267 20.9938C22.5267 20.8647 22.4946 20.7375 22.4333 20.6238L12.6833 2.62384C12.6178 2.50829 12.5235 2.41165 12.4096 2.34331C12.2957 2.27498 12.1661 2.23726 12.0333 2.23384Z" fill="black"/>
</g>
<defs>
<clipPath id="clip0">
<rect width="24" height="24" fill="white"/>
</clipPath>
</defs>
</svg>

<svg width="24" height="24" fill="none" xmlns="http://www.w3.org/2000/svg"><path d="M15.62 13.664l-2.403.019L14.78 7.8l-3.28 4.657 2.841 2.874 1.278-1.667zM15.622 18.674a.4.4 0 00.002-.566L8.754 11.2a.4.4 0 00-.561-.006l-.093.09a.4.4 0 00-.005.57l2.205 2.209-.836 1.29 2.036.147-1.426 5.486 3.045-4.068 1.836 1.854a.4.4 0 00.566.002l.1-.1z" fill="#29D305"/><path d="M21.717 23.254l-19.434-.02a2.238 2.238 0 01-2-3.33l9.748-17.98a2.24 2.24 0 013.938 0l9.748 18a2.241 2.241 0 01-2 3.33zM12.03 2.234a.77.77 0 00-.66.39l-9.737 18a.75.75 0 000 .74.77.77 0 00.65.37h19.494a.77.77 0 00.65-.37.78.78 0 000-.74l-9.747-18a.77.77 0 00-.65-.39z" fill="#000"/></svg>
